X: 100
T:French Canadian Four-step
% Nottingham Music Database
S:Trad, arr Phil Rowe
M:6/8
K:G
Bc|:"G"d3/2e/2d "D"def|"G"g3 gBc|"G"d3/2e/2d dcB|"Am"cBc "D"Afg|
"D"aAa aAg|"D"f3 f2e|[1"D7"d3/2e/2d d^c=c|"G"B3 "D7"B2c:|
 [2"D7"d3/2e/2d def|"G"g3 -"D7"gBc|||:"G"d3/2e/2d dBc|"G"d3/2e/2d def|\
"G"g3/2a/2g gdB|
"Am"cBc "D"Afg|"D"aAa aAg|"D"f3 f2e|"D7"d3/2e/2d d^c=c|"G"B3 "D7"B2c:|
"D7"d3/2e/2d def|"G"g3 -g||


